public/avatar.svg

<svg width="128" height="128" viewBox="0 0 128 128" fill="none" xmlns="http://www.w3.org/2000/svg">
<rect width="128" height="128" fill="#161616"/>
<path d="M37.7955 81.4773C35.1136 81.4773 32.733 81.0057 30.6534 80.0625C28.5852 79.108 26.9545 77.7955 25.7614 76.125C24.5795 74.4545 23.9773 72.5341 23.9545 70.3636H33.1591C33.1932 71.5682 33.6591 72.5284 34.5568 73.2443C35.4659 73.9602 36.5455 74.3182 37.7955 74.3182C38.7614 74.3182 39.6136 74.1136 40.3523 73.7045C41.0909 73.2841 41.6705 72.6932 42.0909 71.9318C42.5114 71.1705 42.7159 70.2841 42.7045 69.2727C42.7159 68.25 42.5114 67.3636 42.0909 66.6136C41.6705 65.8523 41.0909 65.267 40.3523 64.858C39.6136 64.4375 38.7614 64.2273 37.7955 64.2273C36.7955 64.2273 35.8693 64.4716 35.017 64.9602C34.1761 65.4375 33.5568 66.1023 33.1591 66.9545L24.8409 65.3182L26.2045 46.0909H49.6591V53.6591H33.9773L33.2955 61.3636H33.5C34.0455 60.3068 34.9886 59.4318 36.3295 58.7386C37.6705 58.0341 39.2273 57.6818 41 57.6818C43.0795 57.6818 44.9318 58.1648 46.5568 59.1307C48.1932 60.0966 49.483 61.4318 50.4261 63.1364C51.3807 64.8295 51.8523 66.7841 51.8409 69C51.8523 71.4318 51.2727 73.5909 50.1023 75.4773C48.9432 77.3523 47.3125 78.8239 45.2102 79.892C43.108 80.9489 40.6364 81.4773 37.7955 81.4773ZM73.1094 44.4545L61.8594 86.25H53.8821L65.1321 44.4545H73.1094ZM89.3452 45.6136C91.3793 45.6136 93.3054 45.9375 95.1236 46.5852C96.9418 47.2216 98.5497 48.2273 99.9474 49.6023C101.357 50.9773 102.459 52.7727 103.254 54.9886C104.061 57.1932 104.47 59.8636 104.482 63C104.493 65.8636 104.135 68.4375 103.408 70.7216C102.692 72.9943 101.663 74.9318 100.322 76.5341C98.9929 78.1364 97.3906 79.3636 95.5156 80.2159C93.652 81.0568 91.5724 81.4773 89.277 81.4773C86.6974 81.4773 84.4304 80.983 82.4759 79.9943C80.5213 79.0057 78.9645 77.6761 77.8054 76.0057C76.6463 74.3352 75.9702 72.4773 75.777 70.4318H85.1179C85.3452 71.4886 85.8452 72.2557 86.6179 72.733C87.3906 73.1989 88.277 73.4318 89.277 73.4318C91.277 73.4318 92.7372 72.5682 93.6577 70.8409C94.5895 69.1023 95.0611 66.7841 95.0724 63.8864H94.8679C94.4247 64.9545 93.7543 65.8693 92.8565 66.6307C91.9588 67.392 90.9134 67.9773 89.7202 68.3864C88.527 68.7955 87.2656 69 85.9361 69C83.8338 69 81.9929 68.5284 80.4134 67.5852C78.8338 66.6307 77.6009 65.3295 76.7145 63.6818C75.8281 62.0227 75.3793 60.1364 75.3679 58.0227C75.3565 55.5455 75.9418 53.375 77.1236 51.5114C78.3054 49.6477 79.9474 48.1989 82.0497 47.1648C84.152 46.1307 86.5838 45.6136 89.3452 45.6136ZM89.4134 52.7727C88.4702 52.7727 87.6293 52.9886 86.8906 53.4205C86.1634 53.8523 85.5895 54.4375 85.169 55.1761C84.7599 55.9148 84.5611 56.75 84.5724 57.6818C84.5838 58.6136 84.794 59.4489 85.2031 60.1875C85.6236 60.9261 86.1918 61.5114 86.9077 61.9432C87.6349 62.375 88.4702 62.5909 89.4134 62.5909C90.1065 62.5909 90.7486 62.4716 91.3395 62.233C91.9304 61.983 92.4418 61.6364 92.8736 61.1932C93.3168 60.7386 93.6577 60.2159 93.8963 59.625C94.1463 59.0227 94.2656 58.375 94.2543 57.6818C94.2429 56.75 94.027 55.9148 93.6065 55.1761C93.1861 54.4375 92.6122 53.8523 91.8849 53.4205C91.1577 52.9886 90.3338 52.7727 89.4134 52.7727Z" fill="#FFCC00"/>
</svg>

<svg width="128" height="128" viewBox="0 0 128 128" fill="none" xmlns="http://www.w3.org/2000/svg"><path fill="#161616" d="M0 0h128v128H0z"/><path d="M37.796 81.477q-4.023 0-7.143-1.415-3.101-1.43-4.892-3.937-1.772-2.505-1.806-5.761h9.204q.051 1.806 1.398 2.88 1.363 1.074 3.238 1.074 1.45 0 2.557-.614a4.5 4.5 0 0 0 1.739-1.772q.63-1.142.614-2.66.015-1.533-.614-2.658-.63-1.143-1.739-1.756-1.107-.63-2.556-.63-1.5 0-2.779.732a4.38 4.38 0 0 0-1.858 1.995l-8.318-1.637 1.363-19.227H49.66v7.568H33.977l-.681 7.705h.204q.818-1.586 2.83-2.625 2.01-1.057 4.67-1.057 3.12 0 5.557 1.449 2.454 1.448 3.87 4.005 1.43 2.54 1.414 5.864.017 3.647-1.739 6.477-1.739 2.813-4.892 4.415-3.153 1.585-7.415 1.585m35.313-37.022L61.86 86.25h-7.977l11.25-41.795zm16.236 1.159q3.05 0 5.779.971a12.9 12.9 0 0 1 4.823 3.017q2.115 2.062 3.307 5.387 1.21 3.307 1.228 8.011.017 4.296-1.074 7.722-1.074 3.409-3.086 5.812a13.35 13.35 0 0 1-4.806 3.682q-2.796 1.26-6.239 1.261-3.87 0-6.801-1.483t-4.67-3.988a11.5 11.5 0 0 1-2.029-5.574h9.34q.342 1.586 1.5 2.301 1.16.699 2.66.699 3 0 4.38-2.591 1.399-2.608 1.415-6.955h-.204a7.15 7.15 0 0 1-2.011 2.745q-1.347 1.142-3.137 1.755-1.79.614-3.784.614-3.153 0-5.523-1.415a10 10 0 0 1-3.698-3.903q-1.33-2.49-1.347-5.66-.017-3.715 1.756-6.51 1.771-2.796 4.926-4.347 3.153-1.551 7.295-1.551m.068 7.159q-1.415 0-2.522.647a4.7 4.7 0 0 0-1.722 1.756q-.614 1.108-.597 2.506t.631 2.505a4.77 4.77 0 0 0 1.705 1.756q1.09.648 2.505.648 1.04 0 1.927-.358a4.6 4.6 0 0 0 1.534-1.04 4.8 4.8 0 0 0 1.022-1.568q.376-.903.358-1.943-.016-1.398-.648-2.506a4.7 4.7 0 0 0-1.721-1.756q-1.09-.647-2.472-.647" fill="#FC0"/></svg>
